X:1
T:Trask, CMD
T:Trask, CMD
T:Felix Mendelssohn (1809-1847)
T:Public Domain Courtesy of the Cyber Hymnal™
C:Felix Mendelssohn (1809-1847)
Z:Public Domain
Z:Courtesy of the Cyber Hymnal™
%%score ( 1 2 ) ( 3 4 )
L:1/8
Q:1/4=105
M:2/2
K:G
V:1 treble 
V:2 treble 
V:3 bass 
V:4 bass 
V:1
 [EB]4 | [B,E]2 [B,E]2 [EG]2 [EA]2 | [EB]2 (Ac) [EB]2 ([EG][EA]) | [EB]2 [FB]2 [GB]2 [Ec]2 | %4
 [^DB]4 [DF]4 | [EG]2 [=FG]2 [EG]2 [DG]2 | [CG]2 (Fc) [DB]2 (GF) | E2 [DE]2 [CE]2 ([CF][B,^D]) | %8
 [B,E]6 [B,E]2 | [B,^D]2 [B,D]2 [B,E]2 ([B,E]E) | [^DF]2 [DF]2 [EG]2 (GB) | %11
 [EA]2 (Ac) [EB]2 ([EB][Ge]) | [F^d]6 [Ge]2 | [EB]2 [EG]2 E2 [EG]2 | [EB]2 (Ac) [EB]2 [EB][EB] | %15
 [EA]2 [EG]2 [EF]2 [^DF]2 | [B,E]4 |] %17
V:2
 x4 | x8 | x2 E2 x4 | x8 | x8 | x8 | x2 D2 x ^D2 x | E2 x6 | x8 | x8 | x6 E2 | x2 E2 x4 | x8 | %13
 x4 E2 x2 | x2 E2 x4 | x8 | x4 |] %17
V:3
 [E,G,]4 | [E,G,]2 [E,G,]2 [E,B,]2 [E,G,]2 | [E,G,]2 (F,A,) [E,G,]2 ([E,B,][E,F,]) | %3
 [E,G,]2 [E,B,]2 [A,,A,]2 [A,,G,]2 | [B,,F,]4 [B,,B,]4 | [E,B,]2 [D,B,]2 [C,C]2 [B,,G,]2 | %6
 [A,,A,]2 (A,F,) [G,,G,]2 [B,,A,]2 | [C,G,]2 [B,,^G,]2 [A,,A,]2 A,2 | [E,G,]6 [E,G,]2 | %9
 [B,,F,]2 [B,,F,]2 [B,,G,]2 (G,B,) | [B,,A,]2 [B,,A,]2 [B,,B,]2 (B,G,) | %11
 [B,,F,]2 (F,A,) [B,,G,]2 (G,B,) | [C,A,]2 [B,,B,]2 [A,,C]2 [G,,B,]2 | %13
 [G,,B,]2 [B,,B,]2 [E,G,]2 [E,B,]2 | [E,G,]2 (F,A,) [E,G,]2 G,G, | %15
 [F,C]2 [G,B,]2 [A,,C]2 [B,,B,]2 | [E,G,]4 |] %17
V:4
 x4 | x8 | x2 E,2 x4 | x8 | x8 | x8 | x2 D,2 x4 | x6 (A,,B,,) | x8 | x6 B,,2 | x6 B,,2 | %11
 x2 B,,2 x B,,2 x | x8 | x8 | x2 E,2 x G,G, x | x8 | x4 |] %17

